static/data/images/sponsors/bouvet.svg

<svg height="2370" viewBox="0 0 9526 2370" width="9526" xmlns="http://www.w3.org/2000/svg"><g transform="matrix(1 0 0 -1 0 2369.5)"><path d="m0 1217.5v-1152h161.5 161.5v77.1 77l3.3-2.8c36.1-30.7 61.2-49.5 92.7-69.5 88.2-55.8 188-91.8 291.8-105.3 50.7-6.5 117.3-7.3 171.7-1.9 208.4 20.5 395.6 124.9 520.9 290.4 89 117.5 143.4 258.6 158.5 411 3.4 34.2 4.3 52.9 4.3 90.5.1 70.2-6.5 131.1-21.3 196.3-47.2 209.9-175.8 390.7-351.9 494.9-100.3 59.3-202.4 91.8-324 103-27.9 2.5-109.4 2.6-135.5 0-90.2-8.9-168.7-31-247-69.7-57.6-28.4-108.8-63-156-105.2-7.7-6.9-14.1-12.5-14.2-12.4-.2.2-3.3 829.5-3.3 889.4v41.2h-156.5-156.5zm809.5 114c140.8-10.4 262-81 340.5-198.2 50-74.8 78.4-160 86-258.3 2.3-30.3 1.2-79.3-2.6-112-21.6-185.9-131.6-337.4-289.9-399.4-51.4-20.1-99.7-29.6-157-30.8-39-.8-65.3 1.4-101.5 8.7-79.7 16-149.5 51.6-211.3 107.7-40.2 36.5-76.3 85.2-102.2 137.8-30.3 61.6-46.7 122.3-53.7 198-1.9 20.9-1.6 78.6.5 100.5 8.2 82.9 30.2 154.5 67.3 219.2 77 134.2 209.6 217.4 361.9 227.1 12.4.8 49.3.6 62-.3z"/><path d="m8742 1981v-388.5h-107-107v-140-140h107 107v-623.5-623.5h160 160.1l-.6 154.8c-.9 238.3-2.5 862.4-2.5 983.7v108.5h233.5 233.5v140 140h-233.4-233.4l-.6 14.3c-.3 7.8-1 146.1-1.6 307.2-.5 161.2-1.3 329.6-1.7 374.3l-.6 81.2h-156.4-156.3z"/><path d="m2497.5 1627.5c-142.5-9.7-271.2-52.5-386.5-128.5-183.3-120.8-307.8-317-338.9-534-12.7-88.3-10.7-173.5 5.9-257.5 32.1-161.9 117.9-330.8 237.6-467.5 18.1-20.7 55.7-59 75.4-76.9 71.8-65.1 146.5-112.2 220.7-139.1 57.7-21 120.7-28.8 166.8-20.9 48.6 8.3 95.3 33 128.3 67.8 10.8 11.4 18.7 21.8 31.1 40.4 67.9 102.2 138.2 182.4 215.9 246.4 64.5 53.2 145 101.9 232.7 140.7 78 34.6 121.9 61.9 156.5 97.7 45 46.5 66.3 100.5 74.7 189.4 2.2 23.6 2.5 110.9.5 134.5-9.4 109.4-34.8 201.2-80.7 292-29.3 57.9-59.7 103.6-102.4 153.5-14.5 17-48.3 51.4-66.5 67.7-92.2 82.5-202.9 141.1-323.6 171.3-44.5 11.1-83.5 17.5-135.5 22.1-15.7 1.3-95.3 2-112 .9zm92-356.5c69.8-7.6 135.5-29.4 193.5-64.3 67.8-40.8 126.6-100.8 166.1-169.5 25.5-44.3 44.9-97.7 54.3-148.8 8.2-44.6 9.9-102.8 4.1-136.9-8.1-47.1-30.4-81.7-75-116.5-10.3-8.1-28.2-20.1-58.7-39.4-117.1-74.2-183.7-142.9-233.1-240.6-10.6-20.8-16.4-29.3-28.6-41.6-25.2-25.1-54.4-36.9-91.8-36.9-105.8 0-227.5 71.9-321.5 190-82.1 103.2-128.8 223.3-128.8 331 0 131.6 49.1 254.2 136.8 341.7 76.7 76.5 181.4 123.8 292.7 132.3 7.7.6 16 1.2 18.5 1.4 9.9.9 58.3-.4 71.5-1.9z"/><path d="m7625 1618.9c-1.9-.2-10.2-.8-18.5-1.4-31.1-2.3-85.4-10.5-123.4-18.6-206.1-44-362.1-153.5-466.3-327.4-92.2-153.8-133.7-344.7-115.2-529.5 10.4-104.1 29.2-184.6 61.1-261.4 92-221.7 290-385.5 526.9-436 60.8-13 121.5-17.9 208.5-16.8 77.3.9 136.4 7.7 204.9 23.3 140.6 32.1 275 100.9 378.5 193.6 22.4 20.1 56.2 55.1 74.3 76.9 1.2 1.5-10 12.7-101 101.5-56.3 54.8-104.8 102.1-107.8 105.1l-5.6 5.3-30.9-30.8c-64.9-64.5-98.2-89.8-155-117.7-70.1-34.5-144.9-52.6-238-57.6-29.1-1.5-90.9-.7-110 1.6-81.4 9.4-155 36.5-214.4 78.9-81.9 58.3-135.8 143.2-164.5 258.9-4.9 19.5-12.6 57.1-12.6 61.2 0 1.3 71 1.5 589.8 1.7l589.7.3 1.2 13c4.5 50.5 4.4 113.9-.3 167.5-13 148.3-60.8 292-133.9 402.5-55.5 83.8-125.7 150.8-213 203.2-82.5 49.6-180.6 83.6-279.2 96.8-37.2 5-48.4 5.7-96.3 6-25 .2-47.1.1-49-.1zm79-279.8c95.7-11.4 179-51.1 245.2-117 53.9-53.6 90.8-118.6 109.2-192.1 3.9-15.3 8.6-41.1 7.8-42-.7-.7-842.7-.7-843.4 0-.3.4.9 7.8 2.8 16.5 24.9 119.3 87 214.3 177.1 271.3 60.5 38.2 126.6 58.6 210.8 65.1 13.1 1 77.6-.3 90.5-1.8z"/><path d="m3551.3 1152.8c.3-328.5.6-443.2 1.5-453.3 4.6-51.5 8.8-83.1 16.2-120 22.7-113.5 64.5-210 126.7-292.5 41.5-55.1 88.5-99.4 146.3-138 26.7-17.8 42-26.6 72.2-41.5 85.3-42.2 179.2-65.8 291.3-73.1 23.2-1.5 88.8-1.5 112 0 112.1 7.3 206 30.9 291.3 73.1 30.2 14.9 45.5 23.7 72.2 41.5 57.8 38.6 104.8 82.9 146.3 138 86.6 114.9 134.4 258.5 143.7 431.5.6 11.7 1 175.4 1 446.3v427.7h-161-161v-408.7c0-255-.4-417.3-1-431.3-6.8-152.8-52.9-267-137.5-339.9-59.5-51.3-137.2-79.4-229.5-83-109-4.2-201.1 23.9-270 82.4-12.5 10.6-35.2 34.4-45.4 47.5-51.1 65.7-81 151.2-90.6 259-2.7 31-3 68.8-3 464.3v409.7h-161-161z"/><path d="m5189.5 1584.3c1.9-4.6 147-348 322.4-763.3l318.9-755h164.8 164.8l321.8 761.5c177 418.8 322 762.3 322.4 763.3.5 1.6-7.8 1.7-165.8 1.7h-166.3l-229.9-590c-126.5-324.4-230.2-589.7-230.5-589.5s-104.8 265.6-232.1 589.9l-231.5 589.6h-181.2-181.2z"/></g></svg>

<svg width="9526px" height="2370px" viewBox="0 0 9526 2370" version="1.1" xmlns="http://www.w3.org/2000/svg" xmlns:xlink="http://www.w3.org/1999/xlink">
    <g id="Page-1" stroke="none" stroke-width="1" fill="none" fill-rule="evenodd">
        <g id="bouvet" fill="#000000" fill-rule="nonzero">
            <g id="Group" transform="translate(4763.000000, 1184.750000) scale(-1, 1) rotate(-180.000000) translate(-4763.000000, -1184.750000) ">
                <path d="M0,1217.5 L0,65.5 L161.5,65.5 L323,65.5 L323,142.6 L323,219.6 L326.3,216.8 C362.4,186.1 387.5,167.3 419,147.3 C507.2,91.5 607,55.5 710.8,42 C761.5,35.5 828.1,34.7 882.5,40.1 C1090.9,60.6 1278.1,165 1403.4,330.5 C1492.4,448 1546.8,589.1 1561.9,741.5 C1565.3,775.7 1566.2,794.4 1566.2,832 C1566.3,902.2 1559.7,963.1 1544.9,1028.3 C1497.7,1238.2 1369.1,1419 1193,1523.2 C1092.7,1582.5 990.6,1615 869,1626.2 C841.1,1628.7 759.6,1628.8 733.5,1626.2 C643.3,1617.3 564.8,1595.2 486.5,1556.5 C428.9,1528.1 377.7,1493.5 330.5,1451.3 C322.8,1444.4 316.4,1438.8 316.3,1438.9 C316.1,1439.1 313,2268.4 313,2328.3 L313,2369.5 L156.5,2369.5 L0,2369.5 L0,1217.5 Z M809.5,1331.5 C950.3,1321.1 1071.5,1250.5 1150,1133.3 C1200,1058.5 1228.4,973.3 1236,875 C1238.3,844.7 1237.2,795.7 1233.4,763 C1211.8,577.1 1101.8,425.6 943.5,363.6 C892.1,343.5 843.8,334 786.5,332.8 C747.5,332 721.2,334.2 685,341.5 C605.3,357.5 535.5,393.1 473.7,449.2 C433.5,485.7 397.4,534.4 371.5,587 C341.2,648.6 324.8,709.3 317.8,785 C315.9,805.9 316.2,863.6 318.3,885.5 C326.5,968.4 348.5,1040 385.6,1104.7 C462.6,1238.9 595.2,1322.1 747.5,1331.8 C759.9,1332.6 796.8,1332.4 809.5,1331.5 Z" id="Shape"></path>
                <path d="M8742,1981 L8742,1592.5 L8635,1592.5 L8528,1592.5 L8528,1452.5 L8528,1312.5 L8635,1312.5 L8742,1312.5 L8742,689 L8742,65.5 L8902,65.5 L9062.1,65.5 L9061.5,220.3 C9060.6,458.6 9059,1082.7 9059,1204 L9059,1312.5 L9292.5,1312.5 L9526,1312.5 L9526,1452.5 L9526,1592.5 L9292.6,1592.5 L9059.2,1592.5 L9058.6,1606.8 C9058.3,1614.6 9057.6,1752.9 9057,1914 C9056.5,2075.2 9055.7,2243.6 9055.3,2288.3 L9054.7,2369.5 L8898.3,2369.5 L8742,2369.5 L8742,1981 Z" id="Path"></path>
                <path d="M2497.5,1627.5 C2355,1617.8 2226.3,1575 2111,1499 C1927.7,1378.2 1803.2,1182 1772.1,965 C1759.4,876.7 1761.4,791.5 1778,707.5 C1810.1,545.6 1895.9,376.7 2015.6,240 C2033.7,219.3 2071.3,181 2091,163.1 C2162.8,98 2237.5,50.9 2311.7,24 C2369.4,3 2432.4,-4.8 2478.5,3.1 C2527.1,11.4 2573.8,36.1 2606.8,70.9 C2617.6,82.3 2625.5,92.7 2637.9,111.3 C2705.8,213.5 2776.1,293.7 2853.8,357.7 C2918.3,410.9 2998.8,459.6 3086.5,498.4 C3164.5,533 3208.4,560.3 3243,596.1 C3288,642.6 3309.3,696.6 3317.7,785.5 C3319.9,809.1 3320.2,896.4 3318.2,920 C3308.8,1029.4 3283.4,1121.2 3237.5,1212 C3208.2,1269.9 3177.8,1315.6 3135.1,1365.5 C3120.6,1382.5 3086.8,1416.9 3068.6,1433.2 C2976.4,1515.7 2865.7,1574.3 2745,1604.5 C2700.5,1615.6 2661.5,1622 2609.5,1626.6 C2593.8,1627.9 2514.2,1628.6 2497.5,1627.5 Z M2589.5,1271 C2659.3,1263.4 2725,1241.6 2783,1206.7 C2850.8,1165.9 2909.6,1105.9 2949.1,1037.2 C2974.6,992.9 2994,939.5 3003.4,888.4 C3011.6,843.8 3013.3,785.6 3007.5,751.5 C2999.4,704.4 2977.1,669.8 2932.5,635 C2922.2,626.9 2904.3,614.9 2873.8,595.6 C2756.7,521.4 2690.1,452.7 2640.7,355 C2630.1,334.2 2624.3,325.7 2612.1,313.4 C2586.9,288.3 2557.7,276.5 2520.3,276.5 C2414.5,276.5 2292.8,348.4 2198.8,466.5 C2116.7,569.7 2070,689.8 2070,797.5 C2070,929.1 2119.1,1051.7 2206.8,1139.2 C2283.5,1215.7 2388.2,1263 2499.5,1271.5 C2507.2,1272.1 2515.5,1272.7 2518,1272.9 C2527.9,1273.8 2576.3,1272.5 2589.5,1271 Z" id="Shape"></path>
                <path d="M7625,1618.9 C7623.1,1618.7 7614.8,1618.1 7606.5,1617.5 C7575.4,1615.2 7521.1,1607 7483.1,1598.9 C7277,1554.9 7121,1445.4 7016.8,1271.5 C6924.6,1117.7 6883.1,926.8 6901.6,742 C6912,637.9 6930.8,557.4 6962.7,480.6 C7054.7,258.9 7252.7,95.1 7489.6,44.6 C7550.4,31.6 7611.1,26.7 7698.1,27.8 C7775.4,28.7 7834.5,35.5 7903,51.1 C8043.6,83.2 8178,152 8281.5,244.7 C8303.9,264.8 8337.7,299.8 8355.8,321.6 C8357,323.1 8345.8,334.3 8254.8,423.1 C8198.5,477.9 8150,525.2 8147,528.2 L8141.4,533.5 L8110.5,502.7 C8045.6,438.2 8012.3,412.9 7955.5,385 C7885.4,350.5 7810.6,332.4 7717.5,327.4 C7688.4,325.9 7626.6,326.7 7607.5,329 C7526.1,338.4 7452.5,365.5 7393.1,407.9 C7311.2,466.2 7257.3,551.1 7228.6,666.8 C7223.7,686.3 7216,723.9 7216,728 C7216,729.3 7287,729.5 7805.8,729.7 L8395.5,730 L8396.7,743 C8401.2,793.5 8401.1,856.9 8396.4,910.5 C8383.4,1058.8 8335.6,1202.5 8262.5,1313 C8207,1396.8 8136.8,1463.8 8049.5,1516.2 C7967,1565.8 7868.9,1599.8 7770.3,1613 C7733.1,1618 7721.9,1618.7 7674,1619 C7649,1619.2 7626.9,1619.1 7625,1618.9 Z M7704,1339.1 C7799.7,1327.7 7883,1288 7949.2,1222.1 C8003.1,1168.5 8040,1103.5 8058.4,1030 C8062.3,1014.7 8067,988.9 8066.2,988 C8065.5,987.3 7223.5,987.3 7222.8,988 C7222.5,988.4 7223.7,995.8 7225.6,1004.5 C7250.5,1123.8 7312.6,1218.8 7402.7,1275.8 C7463.2,1314 7529.3,1334.4 7613.5,1340.9 C7626.6,1341.9 7691.1,1340.6 7704,1339.1 Z" id="Shape"></path>
                <path d="M3551.3,1152.8 C3551.6,824.3 3551.9,709.6 3552.8,699.5 C3557.4,648 3561.6,616.4 3569,579.5 C3591.7,466 3633.5,369.5 3695.7,287 C3737.2,231.9 3784.2,187.6 3842,149 C3868.7,131.2 3884,122.4 3914.2,107.5 C3999.5,65.3 4093.4,41.7 4205.5,34.4 C4228.7,32.9 4294.3,32.9 4317.5,34.4 C4429.6,41.7 4523.5,65.3 4608.8,107.5 C4639,122.4 4654.3,131.2 4681,149 C4738.8,187.6 4785.8,231.9 4827.3,287 C4913.9,401.9 4961.7,545.5 4971,718.5 C4971.6,730.2 4972,893.9 4972,1164.8 L4972,1592.5 L4811,1592.5 L4650,1592.5 L4650,1183.8 C4650,928.8 4649.6,766.5 4649,752.5 C4642.2,599.7 4596.1,485.5 4511.5,412.6 C4452,361.3 4374.3,333.2 4282,329.6 C4173,325.4 4080.9,353.5 4012,412 C3999.5,422.6 3976.8,446.4 3966.6,459.5 C3915.5,525.2 3885.6,610.7 3876,718.5 C3873.3,749.5 3873,787.3 3873,1182.8 L3873,1592.5 L3712,1592.5 L3551,1592.5 L3551.3,1152.8 Z" id="Path"></path>
                <path d="M5189.5,1584.3 C5191.4,1579.7 5336.5,1236.3 5511.9,821 L5830.8,66 L5995.6,66 L6160.4,66 L6482.2,827.5 C6659.2,1246.3 6804.2,1589.8 6804.6,1590.8 C6805.1,1592.4 6796.8,1592.5 6638.8,1592.5 L6472.5,1592.5 L6242.6,1002.5 C6116.1,678.1 6012.4,412.8 6012.1,413 C6011.8,413.2 5907.3,678.6 5780,1002.9 L5548.5,1592.5 L5367.3,1592.5 L5186.1,1592.5 L5189.5,1584.3 Z" id="Path"></path>
            </g>
        </g>
    </g>
</svg>
